X:1
T:Sonata K.64 (Longo 58)
T:Sonata K.64 (Longo 58)
T:Gavotta
T:Domenico Scarlatti
T:Public Domain (edited by PianoXML)
T:Public Domain (edited by PianoXML)
T:Public Domain (edited by PianoXML)
C:Domenico Scarlatti
Z:Public Domain (edited by PianoXML)
%%score { ( 1 3 ) | ( 2 4 ) }
L:1/8
Q:1/4=108
M:2/4
K:F
V:1 treble nm="Piano" snm="Pno."
V:3 treble 
V:2 bass 
V:4 bass 
V:1
"^Allegro"!f! !>![Adf]2 (ed/^c/ | .d).A (!>!B2- | BG/F/ GA | FE/F/ D2) | !>![Adf]2 (ed/^c/ | %5
 .d).^g.a.A | (Pc=B/A/ .B).^G | .A.E(PFE) | .[^G=B].E(PFE) | .[Ac].E(PFE) | .[=Bd].E(PFE) | %11
 .[ce].E (ed/c/) | P=BA/B/ .E(^g | .a).A (ed/c/) | (P=BA/B/ .E).^G | A2 z2 ::!mp! !>!c2 !>!c2 | %17
 (cd/c/ .f).c | (cd/c/ .f).c | (cd/c/ .f).c | (Pd.c).B.A | .G.F.E.D | .[Cc].B.A.G | .F.f (gf/e/ | %24
 .[Ff]) .G!mf! A2- | A(B/c/ BA | .B)!p! .^F !>!G2- | G(A/B/ AG | .F)!mf! .A !>!d2- | d(e/f/ ed | %30
 .[A^ce]).A(PBA) | [^ce].A(PBA) |"_cresc." [df].A(PBA) | [eg].A(PBA) | .[fa](A!mf!.b).a | %35
 .[Bg].[Af].[Ge].[Fd] | (d^c) dG | !>![DFAd]2 !>![EGA^c]2 | .d!mp!.A(PBA) | .[^ce].A(PBA) | %40
"_cresc." .[df].A(PBA) | .[eg].A(PBA) |!f! .[fa].A (b/d/a/c/ | g/B/f/A/ e/G/d/F/) | (d^c) dG | %45
 !>![DFAd]2 !>![EGA^c]2 | !>![DFAd]2 z2 :| %47
V:2
 !>![D,A,D]2 [A,,E,A,]2 | [D,F,A,]2 z .[G,,D,G,] | [A,,D,A,]2 [A,,E,G,]2 | [D,F,A,]3 .[E,G,] | %4
 !>![D,F,A,]2 [A,,E,A,]2 | [F,A,D]2 z .[F,A,D] | [E,A,C]2 [E,=B,D]2 | !>![A,,E,A,]2 z .[A,,E,A,] | %8
 !>![^G,,E,=B,]2 z .[G,,E,B,] | !>![A,,E,A,]2 z .[A,,E,A,] | !>![=B,,D,E,^G,]2 z .[B,,D,E,G,] | %11
 !>![C,E,A,]2 z .[C,E,A,] | !>![D,A,=B,]2 !>![E,^G,B,]2 | !>![F,A,]2 z .[C,E,A,] | %14
 !>![D,A,=B,]2 !>![E,^G,B,]2 | !>![A,,E,A,]2 (A,/=G,/F,/E,/) :: !>![F,,F,]2 !>![E,G,C]2 | %17
 !>![F,A,C]2 z .[E,G,C] | !>![F,A,C]2 z .[E,G,C] | (F,2 .F,,).F, | (B,.A,).G,.F, | .E,.D,.C,.B,, | %22
 .A,,.G,,.F,,.E,, | D,,2 C,,2 | F,,2 z2 | !>![^F,,D,^F,]2 [D,,D,]2 | %26
 [G,,B,,D,G,]2 z .[G,,B,,D,G,] | [A,,E,G,A,]2 [A,,E,G,A,]2 | [D,F,A,]2 z .[D,F,A,] | %29
 [B,,D,G,]2 [B,,D,G,]2 | [A,,^C,E,G,A,]2 z .[A,,C,E,G,A,] | [^C,E,G,A,]2 z .[C,E,G,A,] | %32
 [D,F,A,]2 z .[D,F,A,] | [E,G,A,^C]2 z .[E,G,A,C] | [F,A,D]2 z .[F,A,D] | [G,B,D]2 z .[G,,D,G,] | %36
 [A,,D,A,]2 [D,G,]2 | !>![A,,D,A,]2 !>![A,,E,G,A,]2 | [D,F,A,]2 z .[D,F,A,] | %39
 [^C,E,G,A,]2 z .[C,E,G,A,] | [D,F,A,]2 z .[D,F,A,] | [E,G,A,^C]2 z .[E,G,A,C] | %42
 [F,A,D]2 z .[F,A,D] | [G,B,D]2 z .[G,,D,G,] | [A,,E,A,]2 [D,G,]2 | !>![A,,D,A,]2 !>![A,,E,G,A,]2 | %46
 !>![D,F,A,]2 z2 :| %47
V:3
 x4 | x2 z D | (D2 ^C2 | D2) x2 | x4 | x4 | x4 | x4 | x4 | x4 | x4 | x4 | x4 | x4 | x4 | x4 :: x4 | %17
 x4 | x4 | x4 | x4 | x4 | x4 | x4 | x2 z .E | !>![A,D]2 x2 | x2 z .D | ^C2 C2 | x2 z .D | G4 | x4 | %31
 x4 | x4 | x4 | x4 | x4 | D2 D2 | x4 | F2 x2 | x4 | x4 | x4 | x4 | x4 | D2 D2 | x4 | x4 :| %47
V:4
 x4 | x4 | x4 | x4 | x4 | x4 | x4 | x4 | x4 | x4 | x4 | x4 | x4 | x4 | x4 | x4 :: x4 | x4 | x4 | %19
 x4 | x4 | x4 | x4 | x4 | x4 | x4 | x4 | x4 | x4 | x4 | x4 | x4 | x4 | x4 | x4 | x4 | x2 B,,G,, | %37
 x4 | x4 | x4 | x4 | x4 | x4 | x4 | x2 B,,G,, | x4 | x4 :| %47

